packages/foundations/assets/icons/functional/images/file/document_check_28.svg

<svg width="28" height="28" viewBox="0 0 28 28" fill="none" xmlns="http://www.w3.org/2000/svg">
<g clip-path="url(#clip0_185_904)">
<path fill-rule="evenodd" clip-rule="evenodd" d="M14.574 1.75C15.0938 1.75 15.5855 1.96875 15.9688 2.324L19.551 5.90625C19.9334 6.2895 20.125 6.78125 20.125 7.301V11.3741C20.125 11.8667 19.7418 12.2491 19.25 12.2491C18.7574 12.2491 18.375 11.8667 18.375 11.3741V8.75H14C13.5083 8.75 13.125 8.36675 13.125 7.875V3.5H4.59375C4.48438 3.5 4.375 3.60938 4.375 3.71875V24.2812C4.375 24.3906 4.48438 24.5 4.59375 24.5H13.125C13.6167 24.5 14 24.8824 14 25.375C14 25.8668 13.6167 26.25 13.125 26.25H4.59375C3.5 26.25 2.625 25.375 2.625 24.2812V3.71875C2.625 2.625 3.5 1.75 4.59375 1.75H14.574ZM19.25 14C22.6406 14 25.375 16.7344 25.375 20.125C25.375 23.5156 22.6406 26.25 19.25 26.25C15.8594 26.25 13.125 23.5156 13.125 20.125C13.125 16.7344 15.8594 14 19.25 14ZM19.25 15.75C16.8438 15.75 14.875 17.7188 14.875 20.125C14.875 22.5312 16.8438 24.5 19.25 24.5C21.6562 24.5 23.625 22.5312 23.625 20.125C23.625 17.7188 21.6562 15.75 19.25 15.75ZM20.8785 18.3871C21.3384 18.3871 21.7274 18.7651 21.7294 19.2348C21.7309 19.46 21.643 19.6767 21.4851 19.8374L19.1642 22.1736C19.0044 22.3339 18.7874 22.4241 18.5611 22.4241C18.3348 22.4241 18.1178 22.3339 17.9581 22.1736L16.8745 21.0901C16.7082 20.9239 16.625 20.7059 16.625 20.4879C16.625 20.0217 17.0039 19.6367 17.4764 19.6367C17.6941 19.6367 17.9119 19.7197 18.078 19.8858L18.5573 20.365L20.2739 18.639C20.4369 18.4746 20.6558 18.3871 20.8785 18.3871ZM10.4997 19.4313C10.9914 19.4313 11.3747 19.8137 11.3747 20.3063C11.3747 20.798 10.9914 21.1813 10.4997 21.1813H6.99965C6.5079 21.1813 6.12465 20.798 6.12465 20.3063C6.12465 19.8137 6.5079 19.4313 6.99965 19.4313H10.4997ZM11.3747 15.9313C11.8664 15.9313 12.2497 16.3137 12.2497 16.8063C12.2497 17.298 11.8664 17.6813 11.3747 17.6813H6.99965C6.5079 17.6813 6.12465 17.298 6.12465 16.8063C6.12465 16.3137 6.5079 15.9313 6.99965 15.9313H11.3747ZM13.1247 12.4313C13.6164 12.4313 13.9997 12.8137 13.9997 13.3063C13.9997 13.798 13.6164 14.1813 13.1247 14.1813H6.99965C6.5079 14.1813 6.12465 13.798 6.12465 13.3063C6.12465 12.8137 6.5079 12.4313 6.99965 12.4313H13.1247ZM14.875 3.69163V7H18.1834L14.875 3.69163Z" fill="#1A1C1F"/>
</g>
<defs>
<clipPath id="clip0_185_904">
<rect width="28" height="28" fill="white"/>
</clipPath>
</defs>
</svg>

<svg xmlns="http://www.w3.org/2000/svg" width="28" height="28" fill="none"><g clip-path="url(#a)"><path fill="#1A1C1F" fill-rule="evenodd" d="M14.574 1.75c.52 0 1.011.219 1.395.574l3.582 3.582c.382.384.574.875.574 1.395v4.073a.864.864 0 0 1-.875.875.863.863 0 0 1-.875-.875V8.75H14a.864.864 0 0 1-.875-.875V3.5H4.594c-.11 0-.219.11-.219.219V24.28c0 .11.11.219.219.219h8.531c.492 0 .875.382.875.875a.864.864 0 0 1-.875.875H4.594a1.96 1.96 0 0 1-1.969-1.969V3.72A1.96 1.96 0 0 1 4.594 1.75zM19.25 14a6.115 6.115 0 0 1 6.125 6.125 6.115 6.115 0 0 1-6.125 6.125 6.115 6.115 0 0 1-6.125-6.125A6.115 6.115 0 0 1 19.25 14m0 1.75a4.39 4.39 0 0 0-4.375 4.375A4.39 4.39 0 0 0 19.25 24.5a4.39 4.39 0 0 0 4.375-4.375 4.39 4.39 0 0 0-4.375-4.375m1.628 2.637a.852.852 0 0 1 .607 1.45l-2.32 2.337a.85.85 0 0 1-1.207 0l-1.083-1.084a.852.852 0 0 1 1.203-1.204l.48.479 1.716-1.726a.85.85 0 0 1 .604-.252M10.5 19.431c.491 0 .875.383.875.875a.864.864 0 0 1-.875.875H7a.864.864 0 0 1-.875-.875c0-.492.383-.875.875-.875zm.875-3.5c.491 0 .875.383.875.875a.864.864 0 0 1-.875.875H7a.864.864 0 0 1-.875-.875c0-.492.383-.875.875-.875zm1.75-3.5c.491 0 .875.383.875.875a.864.864 0 0 1-.875.875H7a.864.864 0 0 1-.875-.875c0-.492.383-.875.875-.875zm1.75-8.74V7h3.308z" clip-rule="evenodd"/></g><defs><clipPath id="a"><path fill="#fff" d="M0 0h28v28H0z"/></clipPath></defs></svg>
